icon-themes/breeze_svg/cmd/lc_beziercutline.svg

<svg viewBox="0 0 24 24" xmlns="http://www.w3.org/2000/svg"><path d="m10 4v1h-6v1h6v2h4v-2h6v-1h-6v-1zm1 1h2v1 1h-2zm-7 12v3h3v-1h3v-1h-3v-1zm13 0v1h-3v1h3v1h3v-3zm-12 1h1v1h-1zm13 0h1v1h-1z" fill="#4d4d4d"/><path d="m10 11 2 3 2-3z" fill="#1d99f3"/></svg>

<svg xmlns="http://www.w3.org/2000/svg" viewBox="0 0 24 24">
 <path 
     style="fill:#4d4d4d" 
     d="M 10 4 L 10 5 L 4 5 L 4 6 L 10 6 L 10 8 L 14 8 L 14 6 L 20 6 L 20 5 L 14 5 L 14 4 L 10 4 z M 11 5 L 13 5 L 13 6 L 13 7 L 11 7 L 11 5 z M 4 17 L 4 20 L 7 20 L 7 19 L 10 19 L 10 18 L 7 18 L 7 17 L 4 17 z M 17 17 L 17 18 L 14 18 L 14 19 L 17 19 L 17 20 L 20 20 L 20 17 L 17 17 z M 5 18 L 6 18 L 6 19 L 5 19 L 5 18 z M 18 18 L 19 18 L 19 19 L 18 19 L 18 18 z "
     />
 <path 
     style="fill:#1d99f3" 
     d="M 10 11 L 12 14 L 14 11 L 10 11 z "
     />
 </svg>
